X: 1245
T: Peggy on the Settle
M:C|
L:1/8
R:Reel
B:O'Neill's 1245
N:Collected by F. O'Neill
Z:Transcribed by Trish O'Neil
N: Fixed line wrapping [jc]
K:G
egfd eA (3.A.A.A | (ed)Bd eA (3.A.A.A | (eg)fd eA (3.A.A.A | (BG)dc BG"end "Bd :|
e^defg2(ag) | e^def g=dBd | e^defg2(ga) | bgaf gdBd |
e^defg2(ag) | e^def g=dBd | gdBdg2(ga) | bc'ba gf"D.C. "e^d |]


